X:78
T:The Lads of Anwick
Z:Jack Campin, http://www.campin.me.uk/
S:Northumbrian Minstrelsy
M:3/4
L:1/16
K:G
g4   d2ef gfed|B2G2 g2G2 BcdB|g4   d2ef gfed|c2A2e2 A2c2e2:|
GABc d2B2 d2B2|GABc d2B2 d2g2|GABc d2B2 d2B2|ABcde2 A2c2e2:|
d2g2 BcdB g2B2|d2g2 BcdB c2e2|d2g2 BcdB g2B2|ABcde2 A2c2e2:|
GABc dedc BcdB|dedB BcdB d2g2|GABc dedc BcdB|ABcde2 A2c2e2:|

